resources/icons/20px/inbox-geo.svg

<?xml version="1.0" encoding="UTF-8"?>
<svg width="20px" height="20px" viewBox="0 0 20 20" version="1.1" xmlns="http://www.w3.org/2000/svg" xmlns:xlink="http://www.w3.org/1999/xlink">
    <!-- Generator: Sketch 52.6 (67491) - http://www.bohemiancoding.com/sketch -->
    <title>Artboard</title>
    <desc>Created with Sketch.</desc>
    <g id="Artboard" stroke="none" stroke-width="1" fill="none" fill-rule="evenodd">
        <g id="inbox-geo" fill="#000000" fill-rule="nonzero">
            <path d="M7.42676427,3 C7.20243336,3.63469053 7.0611097,4.30859213 7.0158372,5.00866089 L4.65,5.00866089 L1.98,11.0046636 L5,11.0046636 C5.55,11.0046636 6,11.4543638 6,12.0039973 L6,13.0033311 L14,13.0033311 L14,13 C14.1653648,13.0108913 14.3318791,13 14.5,13 C16.6730542,13 18.630255,12.075822 20,10.5990685 L20,17.0006662 C20,17.5502998 19.55,18 19,18 L1,18 C0.45,18 -2.48689958e-14,17.5502998 -2.48689958e-14,17.0006662 L-2.48689958e-14,10.54497 L3.08,3.61958694 L3.09,3.59960027 C3.24,3.24983344 3.59,3 4,3 L7.42676427,3 Z M13.1415,2.4035 C13.0865,2.4585 13.004,2.4585 12.949,2.4035 L12.575,2.0295 C12.52,1.98 12.52,1.892 12.575,1.837 C12.63,1.782 12.7125,1.782 12.7675,1.837 L13.1415,2.211 C13.1965,2.2605 13.1965,2.3485 13.1415,2.4035 Z M14.885,2.4365 C14.8355,2.4365 14.797,2.431 14.797,2.3815 C14.797,2.332 14.8355,2.3265 14.885,2.3265 L15.05,2.3265 C15.0995,2.3265 15.138,2.332 15.138,2.3815 C15.138,2.431 15.0995,2.4365 15.05,2.4365 L14.885,2.4365 Z M15.424,3.069 C15.3745,3.069 15.3195,3.025 15.3195,2.9755 L15.3195,2.7445 C15.3195,2.695 15.3745,2.651 15.424,2.651 C15.4735,2.651 15.5285,2.695 15.5285,2.7445 L15.5285,2.9755 C15.5285,3.025 15.4735,3.069 15.424,3.069 Z M11.849,5.3735 L12.355,5.3735 L13.5375,6.5725 C13.543,6.578 13.5375,6.578 13.5375,6.5835 L13.5375,7.029 C13.5375,7.216 13.411,7.37 13.2185,7.37 L13.1195,7.37 L13.1195,7.5955 C13.1195,7.788 12.982,7.8925 12.7895,7.8925 L12.8005,7.8925 L12.8005,8.6845 C12.8005,8.8715 12.619,9.02 12.432,9.02 C12.245,9.02 12.0635,8.8715 12.0635,8.6845 L12.0635,7.3645 L11.849,7.3645 C11.6565,7.3645 11.541,7.216 11.541,7.0235 L11.541,5.72 C11.541,5.5275 11.6565,5.3735 11.849,5.3735 Z M14.5,0 C17.536,0 20,2.464 20,5.5 C20,8.536 17.536,11 14.5,11 C11.464,11 9,8.536 9,5.5 C9,2.464 11.464,0 14.5,0 Z M14.5,9.9 C16.931,9.9 18.9,7.931 18.9,5.5 C18.9,5.203 18.8725,4.917 18.801,4.6365 L18.5645,4.6365 C18.3775,4.6365 18.229,4.532 18.218,4.323 L17.899,4.323 C18.009,4.4275 18.13,4.532 18.13,4.6695 L18.13,5.3735 C18.13,5.4615 18.075,5.544 18.02,5.6045 L17.998,5.6045 L17.987,5.61 L17.965,5.621 L17.2995,6.2645 L17.2995,7.4745 C17.2995,7.667 17.195,7.8045 17.0025,7.8045 L16.4635,7.8045 C16.271,7.8045 16.1445,7.667 16.1445,7.4745 L16.1445,6.2205 C16.04,5.9675 15.864,5.808 15.611,5.7035 L14.94,5.7035 C14.7475,5.7035 14.5715,5.5605 14.5715,5.368 L14.5715,4.6805 C14.5715,4.488 14.7475,4.334 14.94,4.334 L15.1325,4.3285 L15.4515,4.0095 C15.589,3.872 15.8035,3.872 15.941,4.0095 L16.26,4.3285 C16.2655,4.3285 16.2655,4.334 16.2655,4.334 L16.9695,4.334 C17.129,4.334 17.206,4.1745 17.3105,4.0205 L17.3105,3.9105 C17.3105,3.9105 17.2775,3.916 17.272,3.916 L17.0025,3.916 C16.92,3.916 16.8485,3.8445 16.8485,3.7565 C16.8485,3.6685 16.9145,3.597 17.0025,3.597 L17.272,3.597 C17.2775,3.597 17.3105,3.6025 17.3105,3.6025 L17.3105,3.421 C17.3105,3.421 17.261,3.3825 17.25,3.3825 L16.9475,3.3825 L16.8815,3.4595 C16.7495,3.597 16.5295,3.608 16.392,3.4705 L16.326,3.3825 L16.15,3.3825 L16.3975,3.641 C16.4195,3.663 16.4195,3.729 16.3975,3.751 C16.37,3.773 16.3315,3.7785 16.3095,3.7565 L16.018,3.4815 L15.8915,3.4815 L15.5285,3.806 L15.4955,3.8005 C15.457,3.9105 15.4075,3.8885 15.3525,3.8885 C15.226,3.8885 15.127,3.817 15.127,3.696 C15.127,3.5695 15.226,3.487 15.3525,3.487 L15.5285,3.487 C15.5285,3.487 15.5285,3.3495 15.5285,3.3055 C15.5285,3.2175 15.589,3.1735 15.677,3.1735 L15.743,3.1735 L15.743,3.047 C15.743,2.904 15.8915,2.75 16.029,2.75 L16.3095,2.75 C16.469,2.75 16.579,2.6345 16.579,2.475 L16.579,2.42 C16.579,2.4035 16.634,2.4365 16.634,2.332 L16.447,2.332 C16.447,2.332 16.4415,2.3485 16.4415,2.3485 L16.1335,2.6785 C16.084,2.728 16.007,2.728 15.9575,2.6785 C15.908,2.6345 15.908,2.5575 15.9575,2.508 L16.348,2.123 C16.3755,2.101 16.4085,2.101 16.4415,2.101 C16.4415,2.101 16.447,2.123 16.447,2.123 L17.316,2.123 C16.5515,1.485 15.5725,1.1 14.5,1.1 C13.4275,1.1 12.4485,1.485 11.684,2.1175 L12.267,2.1175 C12.3605,2.1175 12.432,2.1835 12.432,2.277 C12.432,2.3705 12.3605,2.4365 12.267,2.4365 L11.7885,2.4365 C11.7885,2.541 11.75,2.497 11.75,2.5025 L11.75,2.8545 L12.179,2.8545 L12.4045,2.6015 C12.5365,2.475 12.751,2.4475 12.8775,2.5795 C13.0095,2.706 13.0095,2.9205 12.8775,3.0525 L11.695,4.235 L11.684,4.246 C11.6785,4.2515 11.673,4.2515 11.6675,4.257 C11.6565,4.2625 11.6455,4.268 11.6345,4.279 C11.629,4.2845 11.6235,4.279 11.618,4.2845 C11.5685,4.3175 11.508,4.323 11.442,4.323 L11.0955,4.323 C10.9745,4.4275 10.9085,4.4715 10.9085,4.5925 L10.9085,4.6805 C10.9085,4.697 10.881,4.708 10.881,4.7245 L11.442,5.313 C11.5025,5.3735 11.497,5.467 11.442,5.522 C11.387,5.5825 11.288,5.5825 11.233,5.522 L10.6555,4.9445 C10.628,4.95 10.6005,4.9555 10.573,4.9555 C10.419,4.9555 10.2815,4.8345 10.2815,4.6805 L10.2815,4.323 L10.265,4.323 C10.1605,4.697 10.1,5.093 10.1,5.5 C10.1,7.931 12.069,9.9 14.5,9.9 Z M17.888,6.7925 C17.965,6.7925 18.0475,6.853 18.0475,6.93 L18.0475,7.3535 C18.0475,7.4305 17.965,7.491 17.888,7.491 C17.811,7.491 17.7285,7.4305 17.7285,7.3535 L17.7285,6.93 C17.7285,6.853 17.811,6.7925 17.888,6.7925 Z M14.775,1.914 C14.775,2.101 14.621,2.2275 14.4395,2.2275 L14.0655,2.2275 L14.0655,2.332 C14.0655,2.442 14.016,2.53 13.906,2.53 C13.796,2.53 13.7465,2.442 13.7465,2.332 L13.7465,1.98 C13.642,1.958 13.7135,1.9525 13.7135,1.925 C13.7135,1.738 13.84,1.6005 14.027,1.6005 L14.434,1.6005 C14.621,1.6005 14.775,1.727 14.775,1.914 Z" id="Shape"></path>
        </g>
    </g>
</svg>

<svg xmlns="http://www.w3.org/2000/svg" viewBox="0 0 20 20">
  <path d="M7.427 3a7.5 7.5 0 0 0-.411 2.009H4.65l-2.67 5.996H5c.55 0 1 .45 1 .999v1h8V13c.165.01.332 0 .5 0a7.48 7.48 0 0 0 5.5-2.4V17c0 .55-.45 1-1 1H1c-.55 0-1-.45-1-1v-6.455L3.08 3.62l.01-.02c.15-.35.5-.6.91-.6zm5.715-.596a.133.133 0 0 1-.193 0l-.374-.374a.133.133 0 0 1 0-.193.133.133 0 0 1 .193 0l.373.374a.133.133 0 0 1 0 .193m1.743.033c-.05 0-.088-.006-.088-.055 0-.05.038-.056.088-.056h.165c.05 0 .088.006.088.055 0 .05-.038.056-.088.056zm.539.632c-.05 0-.104-.044-.104-.094v-.23c0-.05.054-.094.104-.094s.104.044.104.094v.23c0 .05-.055.094-.104.094m-3.575 2.305h.506l1.182 1.199c.006.005 0 .005 0 .01v.446c0 .187-.126.341-.319.341h-.098v.226c0 .192-.138.297-.33.297h.01v.792c0 .186-.181.335-.368.335s-.369-.149-.369-.335v-1.32h-.214c-.193 0-.308-.149-.308-.341V5.72c0-.192.115-.346.308-.346M14.5 0C17.536 0 20 2.464 20 5.5S17.536 11 14.5 11A5.5 5.5 0 0 1 9 5.5C9 2.464 11.464 0 14.5 0m0 9.9c2.431 0 4.4-1.969 4.4-4.4 0-.297-.027-.583-.099-.864h-.236c-.187 0-.336-.104-.347-.313h-.319c.11.104.231.209.231.346v.705c0 .088-.055.17-.11.23h-.022l-.011.006-.022.011-.666.643v1.21c0 .193-.104.33-.296.33h-.54c-.192 0-.319-.137-.319-.33V6.222a.92.92 0 0 0-.533-.518h-.671c-.192 0-.368-.143-.368-.335v-.687c0-.193.176-.347.368-.347l.193-.005.319-.32a.34.34 0 0 1 .489 0l.319.32c.005 0 .005.005.005.005h.704c.16 0 .237-.16.341-.313v-.11l-.038.005h-.27a.16.16 0 0 1-.153-.16c0-.087.066-.159.154-.159h.269l.039.006V3.42s-.05-.038-.061-.038h-.302l-.067.076a.34.34 0 0 1-.489.011l-.066-.088h-.176l.248.259c.021.022.021.088 0 .11-.028.022-.067.028-.088.006l-.292-.276h-.127l-.363.325-.033-.006c-.038.11-.087.089-.143.089-.126 0-.225-.072-.225-.193 0-.127.099-.209.225-.209h.176v-.182c0-.088.061-.131.149-.131h.066v-.127c0-.143.149-.297.286-.297h.28c.16 0 .27-.115.27-.275V2.42c0-.016.055.017.055-.088h-.187l-.005.017-.308.33a.123.123 0 0 1-.177 0c-.049-.044-.049-.121 0-.171l.391-.385c.027-.022.06-.022.094-.022l.005.022h.869A4.38 4.38 0 0 0 14.5 1.1a4.4 4.4 0 0 0-2.816 1.018h.583c.094 0 .165.066.165.159s-.072.16-.165.16h-.478c0 .104-.039.06-.039.066v.351h.429l.226-.252c.132-.127.346-.155.473-.022a.33.33 0 0 1 0 .473l-1.183 1.182-.011.011c-.005.005-.011.005-.016.011a.1.1 0 0 0-.034.022c-.005.006-.01 0-.016.006a.3.3 0 0 1-.176.038h-.347c-.12.104-.187.148-.187.27v.088c0 .016-.027.027-.027.043l.561.589c.06.06.055.154 0 .209a.143.143 0 0 1-.209 0l-.578-.578a.4.4 0 0 1-.082.011c-.154 0-.292-.12-.292-.274v-.358h-.016c-.104.374-.165.77-.165 1.177 0 2.431 1.969 4.4 4.4 4.4m3.388-3.107c.077 0 .16.06.16.137v.424c0 .077-.083.137-.16.137s-.16-.06-.16-.137V6.93c0-.077.083-.137.16-.137m-3.113-4.879c0 .187-.154.314-.335.314h-.374v.104c0 .11-.05.198-.16.198s-.16-.088-.16-.198V1.98c-.104-.022-.033-.028-.033-.055 0-.187.127-.324.314-.324h.407c.187 0 .341.126.341.313"/>
</svg>
